X: 4813
T: Ivy House
C: Traditional
R: jig
B: RSCDS 48-13
Z: 2015 by John Chambers <jc:trillian.mit.edu>
N: Tune for the dance Lady in Red
M: 6/8
L: 1/8
K: G
|: B |\
"G"dBd "B/G"dBd | "C"g3 "E/C"gfe | "G"dBd "B/G"dcB | "D"AFD "F#/D7"D2d |\
"G"dBd "B/G"dBd | "C"g3 "E/C"gfe | "G"dBd "D7"cBA | "G"G3- G2 :|
|: B |\
"G"BAB "B/G"GAB | "C"cde "D7"d2c | "G"BAB "B/G" GAB | "D"AFD "F#/D7"D2d |\
"G"dBd "B/G"dBd | "C"efg "E/C"gfe | "G"dBd "D7"cBA | "G"G3- G2 :|
%%center Book48/4813-Ivy_House-G-32-2.abc

%%sep 1 1 500
%%sep 1 1 500

